app/assets/images/icons/Pie.svg

<svg width="120" height="121" viewBox="0 0 120 121" fill="none" xmlns="http://www.w3.org/2000/svg">
<mask id="mask0" mask-type="alpha" maskUnits="userSpaceOnUse" x="0" y="0" width="59" height="121">
<path d="M0 0H59V121H0V0Z" fill="#C4C4C4"/>
</mask>
<g mask="url(#mask0)">
<circle cx="60" cy="61" r="58" stroke="url(#paint0_linear)" stroke-width="4"/>
</g>
<mask id="mask1" mask-type="alpha" maskUnits="userSpaceOnUse" x="61" y="1" width="59" height="59">
<path d="M61 1H120V60H61V1Z" fill="#C4C4C4"/>
</mask>
<g mask="url(#mask1)">
<circle cx="60" cy="61" r="58" stroke="url(#paint1_linear)" stroke-width="4"/>
</g>
<mask id="mask2" mask-type="alpha" maskUnits="userSpaceOnUse" x="61" y="62" width="59" height="59">
<path d="M120 62V121H61L61 62L120 62Z" fill="#C4C4C4"/>
</mask>
<g mask="url(#mask2)">
<circle cx="60" cy="61" r="58" transform="rotate(90 60 61)" stroke="url(#paint2_linear)" stroke-width="4"/>
</g>
<path d="M50.6482 55.832V59H37.9522V56.48L44.4322 50.36C45.1202 49.704 45.5842 49.144 45.8242 48.68C46.0642 48.2 46.1842 47.728 46.1842 47.264C46.1842 46.592 45.9522 46.08 45.4882 45.728C45.0402 45.36 44.3762 45.176 43.4962 45.176C42.7602 45.176 42.0962 45.32 41.5042 45.608C40.9122 45.88 40.4162 46.296 40.0162 46.856L37.1842 45.032C37.8402 44.056 38.7442 43.296 39.8962 42.752C41.0482 42.192 42.3682 41.912 43.8562 41.912C45.1042 41.912 46.1922 42.12 47.1202 42.536C48.0642 42.936 48.7922 43.512 49.3042 44.264C49.8322 45 50.0962 45.872 50.0962 46.88C50.0962 47.792 49.9042 48.648 49.5202 49.448C49.1362 50.248 48.3922 51.16 47.2882 52.184L43.4242 55.832H50.6482ZM60.2935 48.464C61.3655 48.464 62.3415 48.68 63.2215 49.112C64.1015 49.544 64.7975 50.16 65.3095 50.96C65.8215 51.744 66.0775 52.656 66.0775 53.696C66.0775 54.816 65.7975 55.8 65.2375 56.648C64.6775 57.496 63.9095 58.152 62.9335 58.616C61.9735 59.064 60.9015 59.288 59.7175 59.288C57.3655 59.288 55.5255 58.568 54.1975 57.128C52.8695 55.688 52.2055 53.632 52.2055 50.96C52.2055 49.056 52.5655 47.424 53.2855 46.064C54.0055 44.704 55.0055 43.672 56.2855 42.968C57.5815 42.264 59.0775 41.912 60.7735 41.912C61.6695 41.912 62.5255 42.016 63.3415 42.224C64.1735 42.416 64.8775 42.696 65.4535 43.064L64.0135 45.92C63.1815 45.36 62.1335 45.08 60.8695 45.08C59.4455 45.08 58.3175 45.496 57.4855 46.328C56.6535 47.16 56.2055 48.368 56.1415 49.952C57.1335 48.96 58.5175 48.464 60.2935 48.464ZM59.5015 56.384C60.3335 56.384 61.0055 56.16 61.5175 55.712C62.0455 55.264 62.3095 54.656 62.3095 53.888C62.3095 53.12 62.0455 52.512 61.5175 52.064C61.0055 51.6 60.3175 51.368 59.4535 51.368C58.6055 51.368 57.9095 51.608 57.3655 52.088C56.8215 52.552 56.5495 53.152 56.5495 53.888C56.5495 54.624 56.8135 55.224 57.3415 55.688C57.8695 56.152 58.5895 56.384 59.5015 56.384ZM74.6868 59.288C73.2948 59.288 72.0548 58.944 70.9668 58.256C69.8788 57.568 69.0228 56.576 68.3988 55.28C67.7908 53.968 67.4868 52.408 67.4868 50.6C67.4868 48.792 67.7908 47.24 68.3988 45.944C69.0228 44.632 69.8788 43.632 70.9668 42.944C72.0548 42.256 73.2948 41.912 74.6868 41.912C76.0788 41.912 77.3188 42.256 78.4068 42.944C79.4948 43.632 80.3428 44.632 80.9508 45.944C81.5748 47.24 81.8868 48.792 81.8868 50.6C81.8868 52.408 81.5748 53.968 80.9508 55.28C80.3428 56.576 79.4948 57.568 78.4068 58.256C77.3188 58.944 76.0788 59.288 74.6868 59.288ZM74.6868 56C75.7108 56 76.5108 55.56 77.0868 54.68C77.6788 53.8 77.9748 52.44 77.9748 50.6C77.9748 48.76 77.6788 47.4 77.0868 46.52C76.5108 45.64 75.7108 45.2 74.6868 45.2C73.6788 45.2 72.8788 45.64 72.2868 46.52C71.7108 47.4 71.4228 48.76 71.4228 50.6C71.4228 52.44 71.7108 53.8 72.2868 54.68C72.8788 55.56 73.6788 56 74.6868 56Z" fill="#BC9CFF"/>
<path d="M35.2666 71.184H31.2706L31.2826 78H29.3506V69.6H35.2786L35.2666 71.184ZM39.6165 78.144C38.7445 78.144 37.9565 77.956 37.2525 77.58C36.5565 77.204 36.0085 76.688 35.6085 76.032C35.2165 75.368 35.0205 74.624 35.0205 73.8C35.0205 72.976 35.2165 72.236 35.6085 71.58C36.0085 70.916 36.5565 70.396 37.2525 70.02C37.9565 69.644 38.7445 69.456 39.6165 69.456C40.4885 69.456 41.2725 69.644 41.9685 70.02C42.6645 70.396 43.2125 70.916 43.6125 71.58C44.0125 72.236 44.2125 72.976 44.2125 73.8C44.2125 74.624 44.0125 75.368 43.6125 76.032C43.2125 76.688 42.6645 77.204 41.9685 77.58C41.2725 77.956 40.4885 78.144 39.6165 78.144ZM39.6165 76.488C40.1125 76.488 40.5605 76.376 40.9605 76.152C41.3605 75.92 41.6725 75.6 41.8965 75.192C42.1285 74.784 42.2445 74.32 42.2445 73.8C42.2445 73.28 42.1285 72.816 41.8965 72.408C41.6725 72 41.3605 71.684 40.9605 71.46C40.5605 71.228 40.1125 71.112 39.6165 71.112C39.1205 71.112 38.6725 71.228 38.2725 71.46C37.8725 71.684 37.5565 72 37.3245 72.408C37.1005 72.816 36.9885 73.28 36.9885 73.8C36.9885 74.32 37.1005 74.784 37.3245 75.192C37.5565 75.6 37.8725 75.92 38.2725 76.152C38.6725 76.376 39.1205 76.488 39.6165 76.488ZM52.9636 69.6V78H51.0436V71.184H48.1636L48.1036 72.936C48.0636 74.128 47.9676 75.096 47.8156 75.84C47.6636 76.576 47.4076 77.144 47.0476 77.544C46.6956 77.936 46.1996 78.132 45.5596 78.132C45.2956 78.132 44.9756 78.088 44.5996 78L44.7196 76.356C44.8236 76.388 44.9396 76.404 45.0676 76.404C45.5316 76.404 45.8556 76.132 46.0396 75.588C46.2236 75.036 46.3396 74.176 46.3876 73.008L46.5076 69.6H52.9636ZM59.0696 78.144C58.1976 78.144 57.4096 77.956 56.7056 77.58C56.0096 77.204 55.4616 76.688 55.0616 76.032C54.6696 75.368 54.4736 74.624 54.4736 73.8C54.4736 72.976 54.6696 72.236 55.0616 71.58C55.4616 70.916 56.0096 70.396 56.7056 70.02C57.4096 69.644 58.1976 69.456 59.0696 69.456C59.9416 69.456 60.7256 69.644 61.4216 70.02C62.1176 70.396 62.6656 70.916 63.0656 71.58C63.4656 72.236 63.6656 72.976 63.6656 73.8C63.6656 74.624 63.4656 75.368 63.0656 76.032C62.6656 76.688 62.1176 77.204 61.4216 77.58C60.7256 77.956 59.9416 78.144 59.0696 78.144ZM59.0696 76.488C59.5656 76.488 60.0136 76.376 60.4136 76.152C60.8136 75.92 61.1256 75.6 61.3496 75.192C61.5816 74.784 61.6976 74.32 61.6976 73.8C61.6976 73.28 61.5816 72.816 61.3496 72.408C61.1256 72 60.8136 71.684 60.4136 71.46C60.0136 71.228 59.5656 71.112 59.0696 71.112C58.5736 71.112 58.1256 71.228 57.7256 71.46C57.3256 71.684 57.0096 72 56.7776 72.408C56.5536 72.816 56.4416 73.28 56.4416 73.8C56.4416 74.32 56.5536 74.784 56.7776 75.192C57.0096 75.6 57.3256 75.92 57.7256 76.152C58.1256 76.376 58.5736 76.488 59.0696 76.488ZM69.1351 78.144C68.2791 78.144 67.5031 77.96 66.8071 77.592C66.1191 77.216 65.5751 76.7 65.1751 76.044C64.7831 75.38 64.5871 74.632 64.5871 73.8C64.5871 72.968 64.7831 72.224 65.1751 71.568C65.5751 70.904 66.1191 70.388 66.8071 70.02C67.5031 69.644 68.2831 69.456 69.1471 69.456C69.8751 69.456 70.5311 69.584 71.1151 69.84C71.7071 70.096 72.2031 70.464 72.6031 70.944L71.3551 72.096C70.7871 71.44 70.0831 71.112 69.2431 71.112C68.7231 71.112 68.2591 71.228 67.8511 71.46C67.4431 71.684 67.1231 72 66.8911 72.408C66.6671 72.816 66.5551 73.28 66.5551 73.8C66.5551 74.32 66.6671 74.784 66.8911 75.192C67.1231 75.6 67.4431 75.92 67.8511 76.152C68.2591 76.376 68.7231 76.488 69.2431 76.488C70.0831 76.488 70.7871 76.156 71.3551 75.492L72.6031 76.644C72.2031 77.132 71.7071 77.504 71.1151 77.76C70.5231 78.016 69.8631 78.144 69.1351 78.144ZM77.7024 78.144C76.8304 78.144 76.0424 77.956 75.3384 77.58C74.6424 77.204 74.0944 76.688 73.6944 76.032C73.3024 75.368 73.1064 74.624 73.1064 73.8C73.1064 72.976 73.3024 72.236 73.6944 71.58C74.0944 70.916 74.6424 70.396 75.3384 70.02C76.0424 69.644 76.8304 69.456 77.7024 69.456C78.5744 69.456 79.3584 69.644 80.0544 70.02C80.7504 70.396 81.2984 70.916 81.6984 71.58C82.0984 72.236 82.2984 72.976 82.2984 73.8C82.2984 74.624 82.0984 75.368 81.6984 76.032C81.2984 76.688 80.7504 77.204 80.0544 77.58C79.3584 77.956 78.5744 78.144 77.7024 78.144ZM77.7024 76.488C78.1984 76.488 78.6464 76.376 79.0464 76.152C79.4464 75.92 79.7584 75.6 79.9824 75.192C80.2144 74.784 80.3304 74.32 80.3304 73.8C80.3304 73.28 80.2144 72.816 79.9824 72.408C79.7584 72 79.4464 71.684 79.0464 71.46C78.6464 71.228 78.1984 71.112 77.7024 71.112C77.2064 71.112 76.7584 71.228 76.3584 71.46C75.9584 71.684 75.6424 72 75.4104 72.408C75.1864 72.816 75.0744 73.28 75.0744 73.8C75.0744 74.32 75.1864 74.784 75.4104 75.192C75.6424 75.6 75.9584 75.92 76.3584 76.152C76.7584 76.376 77.2064 76.488 77.7024 76.488ZM89.616 73.62C90.128 73.772 90.52 74.02 90.792 74.364C91.064 74.708 91.2 75.132 91.2 75.636C91.2 76.38 90.916 76.96 90.348 77.376C89.788 77.792 88.984 78 87.936 78H83.796V69.6H87.708C88.684 69.6 89.444 69.788 89.988 70.164C90.532 70.54 90.804 71.076 90.804 71.772C90.804 72.188 90.7 72.556 90.492 72.876C90.284 73.188 89.992 73.436 89.616 73.62ZM85.728 73.08H87.54C87.964 73.08 88.284 72.996 88.5 72.828C88.716 72.652 88.824 72.396 88.824 72.06C88.824 71.732 88.712 71.48 88.488 71.304C88.272 71.128 87.956 71.04 87.54 71.04H85.728V73.08ZM87.864 76.56C88.776 76.56 89.232 76.2 89.232 75.48C89.232 74.784 88.776 74.436 87.864 74.436H85.728V76.56H87.864Z" fill="#BC9CFF"/>
<defs>
<linearGradient id="paint0_linear" x1="60" y1="1" x2="60" y2="121" gradientUnits="userSpaceOnUse">
<stop stop-color="#FFE39C"/>
<stop offset="1" stop-color="#FFBA9C"/>
</linearGradient>
<linearGradient id="paint1_linear" x1="60" y1="1" x2="60" y2="121" gradientUnits="userSpaceOnUse">
<stop stop-color="#BC9CFF"/>
<stop offset="1" stop-color="#8BA4F9"/>
</linearGradient>
<linearGradient id="paint2_linear" x1="60" y1="1" x2="60" y2="121" gradientUnits="userSpaceOnUse">
<stop stop-color="#6FCF97"/>
<stop offset="1" stop-color="#66D2EA"/>
</linearGradient>
</defs>
</svg>

<svg width="120" height="121" viewBox="0 0 120 121" fill="none" xmlns="http://www.w3.org/2000/svg"><mask id="a" mask-type="alpha" maskUnits="userSpaceOnUse" x="0" y="0" width="59" height="121"><path d="M0 0h59v121H0V0Z" fill="#C4C4C4"/></mask><g mask="url(#a)"><circle cx="60" cy="61" r="58" stroke="url(#b)" stroke-width="4"/></g><mask id="c" mask-type="alpha" maskUnits="userSpaceOnUse" x="61" y="1" width="59" height="59"><path d="M61 1h59v59H61V1Z" fill="#C4C4C4"/></mask><g mask="url(#c)"><circle cx="60" cy="61" r="58" stroke="url(#d)" stroke-width="4"/></g><mask id="e" mask-type="alpha" maskUnits="userSpaceOnUse" x="61" y="62" width="59" height="59"><path d="M120 62v59H61V62h59Z" fill="#C4C4C4"/></mask><g mask="url(#e)"><circle cx="60" cy="61" r="58" transform="rotate(90 60 61)" stroke="url(#f)" stroke-width="4"/></g><path d="M50.648 55.832V59H37.952v-2.52l6.48-6.12c.688-.656 1.152-1.216 1.392-1.68.24-.48.36-.952.36-1.416 0-.672-.232-1.184-.696-1.536-.448-.368-1.112-.552-1.992-.552-.736 0-1.4.144-1.992.432a3.718 3.718 0 0 0-1.488 1.248l-2.832-1.824c.656-.976 1.56-1.736 2.712-2.28 1.152-.56 2.472-.84 3.96-.84 1.248 0 2.336.208 3.264.624.944.4 1.672.976 2.184 1.728.528.736.792 1.608.792 2.616 0 .912-.192 1.768-.576 2.568-.384.8-1.128 1.712-2.232 2.736l-3.864 3.648h7.224Zm9.645-7.368c1.072 0 2.049.216 2.928.648a5.086 5.086 0 0 1 2.089 1.848c.511.784.767 1.696.767 2.736 0 1.12-.28 2.104-.84 2.952-.56.848-1.327 1.504-2.303 1.968-.96.448-2.032.672-3.216.672-2.353 0-4.193-.72-5.52-2.16-1.328-1.44-1.992-3.496-1.992-6.168 0-1.904.36-3.536 1.08-4.896.72-1.36 1.72-2.392 3-3.096 1.295-.704 2.791-1.056 4.487-1.056.896 0 1.752.104 2.569.312.832.192 1.535.472 2.112.84l-1.44 2.856c-.832-.56-1.88-.84-3.144-.84-1.424 0-2.552.416-3.384 1.248-.832.832-1.28 2.04-1.344 3.624.991-.992 2.375-1.488 4.151-1.488Zm-.791 7.92c.831 0 1.503-.224 2.015-.672.528-.448.792-1.056.792-1.824s-.264-1.376-.791-1.824c-.513-.464-1.2-.696-2.065-.696-.848 0-1.544.24-2.088.72-.544.464-.816 1.064-.816 1.8s.264 1.336.793 1.8c.528.464 1.248.696 2.16.696Zm15.185 2.904c-1.392 0-2.632-.344-3.72-1.032-1.088-.688-1.944-1.68-2.568-2.976-.608-1.312-.912-2.872-.912-4.68 0-1.808.304-3.36.912-4.656.624-1.312 1.48-2.312 2.568-3 1.088-.688 2.328-1.032 3.72-1.032 1.392 0 2.632.344 3.72 1.032 1.088.688 1.936 1.688 2.544 3 .624 1.296.936 2.848.936 4.656 0 1.808-.312 3.368-.936 4.68-.608 1.296-1.456 2.288-2.544 2.976-1.088.688-2.328 1.032-3.72 1.032Zm0-3.288c1.024 0 1.824-.44 2.4-1.32.592-.88.888-2.24.888-4.08 0-1.84-.296-3.2-.888-4.08-.576-.88-1.376-1.32-2.4-1.32-1.008 0-1.808.44-2.4 1.32-.576.88-.864 2.24-.864 4.08 0 1.84.288 3.2.864 4.08.592.88 1.392 1.32 2.4 1.32Zm-39.42 15.184H31.27L31.283 78H29.35v-8.4h5.928l-.012 1.584Zm4.35 6.96c-.872 0-1.66-.188-2.364-.564a4.255 4.255 0 0 1-1.645-1.548c-.391-.664-.587-1.408-.587-2.232 0-.824.196-1.564.587-2.22.4-.664.949-1.184 1.645-1.56.703-.376 1.492-.564 2.364-.564.872 0 1.656.188 2.352.564a4.226 4.226 0 0 1 1.643 1.56c.4.656.6 1.396.6 2.22 0 .824-.2 1.568-.6 2.232a4.255 4.255 0 0 1-1.644 1.548c-.696.376-1.48.564-2.352.564Zm0-1.656c.495 0 .944-.112 1.344-.336.4-.232.712-.552.936-.96.232-.408.348-.872.348-1.392 0-.52-.116-.984-.348-1.392a2.372 2.372 0 0 0-.936-.948 2.63 2.63 0 0 0-1.344-.348 2.63 2.63 0 0 0-1.344.348c-.4.224-.717.54-.949.948a2.844 2.844 0 0 0-.335 1.392c0 .52.111.984.336 1.392.231.408.547.728.947.96.4.224.849.336 1.345.336ZM52.964 69.6V78h-1.92v-6.816h-2.88l-.06 1.752c-.04 1.192-.136 2.16-.288 2.904-.152.736-.408 1.304-.768 1.704-.352.392-.848.588-1.488.588-.264 0-.584-.044-.96-.132l.12-1.644c.104.032.22.048.348.048.464 0 .788-.272.972-.816.184-.552.3-1.412.348-2.58l.12-3.408h6.456Zm6.106 8.544c-.872 0-1.66-.188-2.364-.564a4.255 4.255 0 0 1-1.644-1.548c-.392-.664-.588-1.408-.588-2.232 0-.824.196-1.564.588-2.22.4-.664.948-1.184 1.644-1.56.704-.376 1.492-.564 2.364-.564.872 0 1.656.188 2.352.564a4.226 4.226 0 0 1 1.644 1.56c.4.656.6 1.396.6 2.22 0 .824-.2 1.568-.6 2.232a4.255 4.255 0 0 1-1.644 1.548c-.696.376-1.48.564-2.352.564Zm0-1.656c.496 0 .944-.112 1.344-.336.4-.232.712-.552.936-.96.232-.408.348-.872.348-1.392 0-.52-.116-.984-.348-1.392a2.372 2.372 0 0 0-.936-.948 2.63 2.63 0 0 0-1.344-.348 2.63 2.63 0 0 0-1.344.348c-.4.224-.716.54-.948.948a2.844 2.844 0 0 0-.336 1.392c0 .52.112.984.336 1.392.232.408.548.728.948.96.4.224.848.336 1.344.336Zm10.065 1.656c-.856 0-1.632-.184-2.328-.552a4.277 4.277 0 0 1-1.632-1.548c-.392-.664-.588-1.412-.588-2.244 0-.832.196-1.576.588-2.232.4-.664.944-1.18 1.632-1.548.696-.376 1.476-.564 2.34-.564.728 0 1.384.128 1.968.384a3.943 3.943 0 0 1 1.488 1.104l-1.248 1.152c-.568-.656-1.272-.984-2.112-.984-.52 0-.984.116-1.392.348-.408.224-.728.54-.96.948a2.844 2.844 0 0 0-.336 1.392c0 .52.112.984.336 1.392.232.408.552.728.96.96.408.224.872.336 1.392.336.84 0 1.544-.332 2.112-.996l1.248 1.152c-.4.488-.896.86-1.488 1.116-.592.256-1.252.384-1.98.384Zm8.567 0c-.872 0-1.66-.188-2.364-.564a4.255 4.255 0 0 1-1.644-1.548c-.392-.664-.588-1.408-.588-2.232 0-.824.196-1.564.588-2.22.4-.664.948-1.184 1.644-1.56.704-.376 1.492-.564 2.364-.564.872 0 1.656.188 2.352.564a4.226 4.226 0 0 1 1.644 1.56c.4.656.6 1.396.6 2.22 0 .824-.2 1.568-.6 2.232a4.255 4.255 0 0 1-1.644 1.548c-.696.376-1.48.564-2.352.564Zm0-1.656c.496 0 .944-.112 1.344-.336.4-.232.712-.552.936-.96.232-.408.348-.872.348-1.392 0-.52-.116-.984-.348-1.392a2.372 2.372 0 0 0-.936-.948 2.63 2.63 0 0 0-1.344-.348 2.63 2.63 0 0 0-1.344.348c-.4.224-.716.54-.948.948a2.844 2.844 0 0 0-.336 1.392c0 .52.112.984.336 1.392.232.408.548.728.948.96.4.224.848.336 1.344.336Zm11.914-2.868c.512.152.904.4 1.176.744.272.344.408.768.408 1.272 0 .744-.284 1.324-.852 1.74-.56.416-1.364.624-2.412.624h-4.14v-8.4h3.912c.976 0 1.736.188 2.28.564.544.376.816.912.816 1.608 0 .416-.104.784-.312 1.104-.208.312-.5.56-.876.744Zm-3.888-.54h1.812c.424 0 .744-.084.96-.252.216-.176.324-.432.324-.768 0-.328-.112-.58-.336-.756-.216-.176-.532-.264-.948-.264h-1.812v2.04Zm2.136 3.48c.912 0 1.368-.36 1.368-1.08 0-.696-.456-1.044-1.368-1.044h-2.136v2.124h2.136Z" fill="#BC9CFF"/><defs><linearGradient id="b" x1="60" y1="1" x2="60" y2="121" gradientUnits="userSpaceOnUse"><stop stop-color="#FFE39C"/><stop offset="1" stop-color="#FFBA9C"/></linearGradient><linearGradient id="d" x1="60" y1="1" x2="60" y2="121" gradientUnits="userSpaceOnUse"><stop stop-color="#BC9CFF"/><stop offset="1" stop-color="#8BA4F9"/></linearGradient><linearGradient id="f" x1="60" y1="1" x2="60" y2="121" gradientUnits="userSpaceOnUse"><stop stop-color="#6FCF97"/><stop offset="1" stop-color="#66D2EA"/></linearGradient></defs></svg>
